lib/brands/logos/git-book.svg

<svg xmlns="http://www.w3.org/2000/svg" fill="none" aria-hidden="true" viewBox="0 0 242 56"><g id="GitBook"><g id="Vector"><path fill="black" d="M35.9898 43.8887C37.131 43.8887 37.8157 44.8016 37.8157 45.7146C37.8157 46.8558 36.9028 47.5405 35.9898 47.5405C34.8486 47.5405 34.1639 46.6275 34.1639 45.7146C34.1639 44.8016 34.8486 43.8887 35.9898 43.8887ZM65.889 32.2485C64.7478 32.2485 64.0631 31.3356 64.0631 30.4226C64.0631 29.5097 64.9761 28.5967 65.889 28.5967C67.0302 28.5967 67.7149 29.5097 67.7149 30.4226C67.7149 31.3356 66.802 32.2485 65.889 32.2485ZM65.889 24.4884C62.6937 24.4884 59.9548 27.2273 59.9548 30.4226C59.9548 31.1073 59.9548 31.7921 60.1831 32.2485L40.7828 42.5193C39.6416 40.9216 37.8157 40.0086 35.9898 40.0086C33.7074 40.0086 31.6533 41.3781 30.7404 43.204L13.3943 34.0744C11.5684 33.1615 10.1989 29.9662 10.4272 27.2273C10.4272 25.8579 11.1119 24.7167 11.7966 24.2602C12.2531 24.032 12.9378 24.032 13.3943 24.2602H13.6225C18.1873 26.7708 33.4792 34.5309 33.9357 34.9874C34.8486 35.4439 35.5334 35.6721 37.131 34.7592L68.3996 18.5543C68.8561 18.326 69.3126 17.8695 69.3126 17.1848C69.3126 16.2719 68.3996 15.8154 68.3996 15.8154C66.5737 14.9024 63.8349 13.7613 61.3243 12.3918C55.6183 9.65297 49.2276 6.68587 46.2605 5.31644C43.7499 3.94701 41.924 5.0882 41.4675 5.31644L40.7828 5.54468C28.0015 11.9353 10.8836 20.3802 9.97069 20.8366C8.14478 21.9778 7.23183 24.032 7.00359 26.5426C6.77535 30.6509 8.82949 34.9874 12.0248 36.5851L30.5121 46.1711C30.9686 49.1382 33.4792 51.1923 36.2181 51.1923C39.4134 51.1923 42.1523 48.6817 42.1523 45.4863L62.4654 34.5309C63.6066 35.4439 64.7478 35.6721 66.1173 35.6721C69.3126 35.6721 72.0514 32.9333 72.0514 29.7379C71.595 26.9991 69.0844 24.4884 65.889 24.4884Z"/><path fill="black" d="M110.395 40.0086C109.254 41.1498 107.657 42.291 105.602 42.9757C103.548 43.6604 101.266 44.1169 98.7553 44.1169C94.8753 44.1169 91.6799 42.9757 89.3975 40.4651C87.1152 38.1827 85.7457 34.7592 85.7457 30.6509V28.1403C85.7457 25.1732 86.2022 22.6625 87.3434 20.6084C88.4846 18.326 89.854 16.7283 91.6799 15.5872C93.5058 14.446 95.7882 13.7613 98.2988 13.7613C101.951 13.7613 104.918 14.6742 106.972 16.2719C109.026 17.8695 110.167 20.3802 110.624 23.8037H103.777C103.548 22.2061 103.092 21.0649 102.179 20.3802C101.266 19.6954 100.125 19.239 98.7553 19.239C96.9294 19.239 95.56 19.9237 94.647 21.5213C93.7341 23.119 93.2776 25.1732 93.0494 27.912V29.7379C93.0494 32.705 93.5058 34.9874 94.647 36.3568C95.56 37.7263 97.1576 38.6392 99.44 38.6392C101.266 38.6392 102.635 38.1827 103.548 37.498V32.9333H98.5271V28.1403H110.624V40.0086H110.395Z"/><path fill="black" d="M114.504 43.6604H121.351V21.7496H114.504V43.6604ZM114.275 16.0436C114.275 15.1307 114.732 14.2177 115.417 13.533C116.101 12.8483 117.014 12.6201 118.156 12.6201C119.297 12.6201 120.21 12.8483 120.894 13.533C121.579 14.2177 122.036 14.9024 122.036 16.0436C122.036 16.9566 121.579 17.8695 120.894 18.5543C120.21 19.239 119.297 19.4672 118.156 19.4672C117.014 19.4672 116.101 19.239 115.417 18.5543C114.504 17.8695 114.275 17.1848 114.275 16.0436Z"/><path fill="black" d="M133.676 16.2719V21.7496H137.328V26.5426H133.676V36.5851C133.676 37.498 133.904 37.9545 134.132 38.411C134.36 38.6392 135.045 38.8674 135.958 38.8674C136.643 38.8674 137.099 38.8674 137.556 38.6392V43.4322C136.415 43.8887 135.045 44.1169 133.676 44.1169C131.393 44.1169 129.567 43.6604 128.426 42.5193C127.285 41.3781 126.829 39.7804 126.829 37.498V26.5426H124.09V21.7496H126.829V16.2719H133.676Z"/><path fill="black" d="M147.37 31.1073V38.1827H151.935C153.304 38.1827 154.217 37.9545 154.902 37.2698C155.587 36.5851 156.043 35.9003 156.043 34.7592C156.043 32.2485 154.902 31.1073 152.391 31.1073H147.37ZM147.37 26.5426H151.022C152.619 26.5426 153.761 26.3143 154.445 25.6296C155.13 25.1732 155.358 24.2602 155.358 23.119C155.358 21.9778 154.902 21.0649 154.217 20.3802C153.532 19.9237 152.391 19.4672 150.794 19.4672H147.37V26.5426ZM140.295 43.6604V14.2177H151.022C154.902 14.2177 157.641 14.9024 159.695 16.2719C161.749 17.6413 162.662 19.6954 162.662 22.4343C162.662 24.032 162.205 25.1732 161.521 26.3143C160.836 27.4555 159.695 28.1403 158.325 28.5967C159.923 29.0532 161.064 29.7379 161.977 30.8791C162.89 32.0203 163.118 33.3897 163.118 34.9874C163.118 37.9545 162.205 40.0086 160.38 41.6063C158.554 42.9757 155.815 43.8887 152.163 43.8887L140.295 43.6604Z"/><path fill="black" d="M172.704 32.9333C172.704 34.9874 172.933 36.3568 173.617 37.498C174.302 38.411 175.215 38.8674 176.356 38.8674C178.867 38.8674 180.008 37.0415 180.008 33.1615V32.4768C180.008 28.5967 178.639 26.5426 176.128 26.5426C173.846 26.5426 172.704 28.1403 172.476 31.5638L172.704 32.9333ZM165.857 32.4768C165.857 30.1944 166.314 28.3685 167.227 26.5426C168.14 24.9449 169.281 23.5755 170.879 22.6625C172.476 21.7496 174.302 21.2931 176.584 21.2931C179.78 21.2931 182.519 22.2061 184.345 24.2602C186.17 26.3143 187.083 29.0532 187.083 32.4768V32.9333C187.083 36.3568 186.17 39.0957 184.116 41.1498C182.29 43.204 179.552 44.1169 176.356 44.1169C173.161 44.1169 170.65 43.204 168.824 41.3781C166.998 39.5522 165.857 37.0415 165.857 33.8462V32.4768Z"/><path fill="black" d="M196.213 32.9333C196.213 34.9874 196.441 36.3568 197.126 37.498C197.811 38.411 198.724 38.8674 199.865 38.8674C202.375 38.8674 203.517 37.0415 203.517 33.1615V32.4768C203.517 28.5967 202.147 26.5426 199.637 26.5426C197.354 26.5426 196.213 28.1403 195.985 31.5638L196.213 32.9333ZM189.366 32.4768C189.366 30.1944 189.822 28.3685 190.735 26.5426C191.648 24.9449 192.789 23.5755 194.387 22.6625C195.985 21.7496 197.811 21.2931 200.093 21.2931C203.288 21.2931 206.027 22.2061 207.853 24.2602C209.679 26.3143 210.592 29.0532 210.592 32.4768V32.9333C210.592 36.3568 209.679 39.0957 207.625 41.1498C205.799 43.204 203.06 44.1169 199.865 44.1169C196.669 44.1169 194.159 43.204 192.333 41.3781C190.507 39.5522 189.366 37.0415 189.366 33.8462V32.4768Z"/><path fill="black" d="M222.46 35.6721L220.406 37.498V43.6604H213.559V12.6201H220.406V29.0532L221.091 28.1403L226.34 21.7496H234.557L226.797 30.8791L235.013 43.6604H227.253L222.46 35.6721Z"/></g></g></svg>

<svg xmlns="http://www.w3.org/2000/svg" fill="none" aria-hidden="true" viewBox="0 0 242 56"><path fill="#000" d="M35.99 43.889c1.141 0 1.826.913 1.826 1.826 0 1.14-.913 1.825-1.826 1.825-1.141 0-1.826-.913-1.826-1.825 0-.913.685-1.826 1.826-1.826Zm29.899-11.64c-1.141 0-1.826-.913-1.826-1.826s.913-1.826 1.826-1.826c1.141 0 1.826.913 1.826 1.826s-.913 1.826-1.826 1.826Zm0-7.76c-3.195 0-5.934 2.738-5.934 5.934 0 .684 0 1.369.228 1.826l-19.4 10.27c-1.141-1.597-2.967-2.51-4.793-2.51-2.283 0-4.337 1.369-5.25 3.195l-17.346-9.13c-1.826-.913-3.195-4.108-2.967-6.847 0-1.37.685-2.51 1.37-2.967.456-.228 1.14-.228 1.597 0h.229c4.564 2.51 19.856 10.27 20.313 10.727.913.457 1.597.685 3.195-.228L68.4 18.554c.456-.228.913-.684.913-1.37 0-.912-.913-1.369-.913-1.369-1.826-.913-4.565-2.054-7.076-3.423a1205.835 1205.835 0 0 0-15.063-7.076c-2.511-1.369-4.337-.228-4.794 0l-.684.229C28 11.935 10.883 20.38 9.97 20.837c-1.826 1.14-2.74 3.195-2.967 5.706-.229 4.108 1.825 8.444 5.02 10.042l18.488 9.586c.457 2.967 2.967 5.021 5.706 5.021 3.195 0 5.934-2.51 5.934-5.706l20.313-10.955c1.142.913 2.283 1.141 3.652 1.141 3.196 0 5.934-2.739 5.934-5.934-.456-2.739-2.967-5.25-6.162-5.25Zm44.506 15.52a12.288 12.288 0 0 1-4.793 2.967c-2.054.684-4.336 1.14-6.847 1.14-3.88 0-7.075-1.14-9.358-3.65-2.282-2.283-3.651-5.707-3.651-9.815v-2.51c0-2.968.456-5.478 1.597-7.533 1.142-2.282 2.511-3.88 4.337-5.02 1.826-1.142 4.108-1.827 6.619-1.827 3.652 0 6.619.913 8.673 2.51 2.054 1.598 3.195 4.11 3.652 7.533h-6.847c-.229-1.598-.685-2.74-1.598-3.424a5.606 5.606 0 0 0-3.424-1.141c-1.826 0-3.195.685-4.108 2.282-.913 1.598-1.37 3.652-1.598 6.391v1.826c0 2.967.457 5.25 1.598 6.619.913 1.37 2.51 2.282 4.793 2.282 1.826 0 3.195-.456 4.108-1.141v-4.565h-5.02V28.14h12.096v11.87h-.229Zm4.109 3.651h6.847V21.75h-6.847v21.91Zm-.229-27.616c0-.913.457-1.826 1.142-2.511.684-.685 1.597-.913 2.739-.913 1.141 0 2.054.228 2.738.913.685.685 1.142 1.37 1.142 2.51 0 .914-.457 1.826-1.142 2.511-.684.685-1.597.913-2.738.913-1.142 0-2.055-.228-2.739-.913-.913-.684-1.142-1.37-1.142-2.51Zm19.401.228v5.478h3.652v4.793h-3.652v10.042c0 .913.228 1.37.456 1.826.228.228.913.456 1.826.456.685 0 1.141 0 1.598-.228v4.793c-1.141.457-2.511.685-3.88.685-2.283 0-4.109-.457-5.25-1.598s-1.597-2.739-1.597-5.021V26.543h-2.739V21.75h2.739v-5.478h6.847Zm13.694 14.835v7.076h4.565c1.369 0 2.282-.228 2.967-.913s1.141-1.37 1.141-2.51c0-2.511-1.141-3.653-3.652-3.653h-5.021Zm0-4.564h3.652c1.597 0 2.739-.229 3.423-.913.685-.457.913-1.37.913-2.511a3.779 3.779 0 0 0-1.141-2.739c-.685-.456-1.826-.913-3.423-.913h-3.424v7.076Zm-7.075 17.117V14.218h10.727c3.88 0 6.619.684 8.673 2.054 2.054 1.37 2.967 3.423 2.967 6.162 0 1.598-.457 2.74-1.141 3.88-.685 1.142-1.826 1.826-3.196 2.283 1.598.456 2.739 1.14 3.652 2.282.913 1.141 1.141 2.51 1.141 4.108 0 2.968-.913 5.022-2.738 6.62-1.826 1.369-4.565 2.282-8.217 2.282l-11.868-.229Zm32.409-10.727c0 2.054.229 3.424.913 4.565.685.913 1.598 1.37 2.739 1.37 2.511 0 3.652-1.827 3.652-5.707v-.684c0-3.88-1.369-5.934-3.88-5.934-2.282 0-3.424 1.597-3.652 5.02l.228 1.37Zm-6.847-.456c0-2.283.457-4.108 1.37-5.934.913-1.598 2.054-2.967 3.652-3.88 1.597-.913 3.423-1.37 5.705-1.37 3.196 0 5.935.913 7.761 2.967 1.825 2.054 2.738 4.793 2.738 8.217v.456c0 3.424-.913 6.163-2.967 8.217-1.826 2.054-4.564 2.967-7.76 2.967-3.195 0-5.706-.913-7.532-2.739-1.826-1.826-2.967-4.337-2.967-7.532v-1.37Zm30.356.456c0 2.054.228 3.424.913 4.565.685.913 1.598 1.37 2.739 1.37 2.51 0 3.652-1.827 3.652-5.707v-.684c0-3.88-1.37-5.934-3.88-5.934-2.283 0-3.424 1.597-3.652 5.02l.228 1.37Zm-6.847-.456c0-2.283.456-4.108 1.369-5.934.913-1.598 2.054-2.967 3.652-3.88 1.598-.913 3.424-1.37 5.706-1.37 3.195 0 5.934.913 7.76 2.967 1.826 2.054 2.739 4.793 2.739 8.217v.456c0 3.424-.913 6.163-2.967 8.217-1.826 2.054-4.565 2.967-7.76 2.967-3.196 0-5.706-.913-7.532-2.739-1.826-1.826-2.967-4.337-2.967-7.532v-1.37Zm33.094 3.195-2.054 1.826v6.162h-6.847V12.62h6.847v16.433l.685-.913 5.249-6.39h8.217l-7.76 9.13 8.216 12.78h-7.76l-4.793-7.988Z"/></svg>
